assets/img/braze_icons/map-02.svg

<svg fill="none" height="24" viewBox="0 0 24 24" width="24" xmlns="http://www.w3.org/2000/svg"><g fill="#801ed7"><path d="m5.74816 2.0442c.1647-.01346.24705-.02019.34409-.00916.27336.03108.55735.20216.7126.42929.05512.08063.0939.17112.17147.3521l3.74798 8.74527-7.53806 4.1589c-.39044.2155-.58566.3232-.74538.3042-.13936-.0166-.26535-.091-.34719-.205-.09378-.1306-.0938-.3536-.09383-.7995-.00018-2.4205.00015-4.8411.00015-7.26161-.00001-.80496-.00002-1.46933.04419-2.01051.04593-.5621.14449-1.0788.39178-1.56414.3835-.75265.99542-1.36457 1.74807-1.74806.48533-.2473 1.00204-.34586 1.56413-.39178z"/><path d="m3.04242 18.0842c-.33582.1853-.50372.2779-.63552.462-.09368.1309-.18207.3938-.18649.5546-.00623.2264.04431.3402.14538.5678.02195.0495.04531.0986.07017.1474.3835.7526.99542 1.3645 1.74807 1.748.48533.2473 1.00204.3459 1.56413.3918.54119.0442 1.20554.0442 2.0105.0442h6.22594c.4051 0 .6076 0 .7343-.0853.1107-.0745.187-.1902.2119-.3213.0285-.15-.0513-.3362-.2109-.7085l-3.2039-7.4758z"/><path d="m18.2518 21.9558c-.1645.0134-.2467.0202-.3436.0092-.2736-.0311-.5577-.2022-.713-.4295-.055-.0806-.0938-.171-.1712-.3517l-7.74373-18.06866c-.15957-.37234-.23936-.55851-.21086-.7085.02492-.1311.10122-.24681.21191-.32136.12663-.08528.32917-.08528.73428-.08528h6.2257c.8049-.00001 1.4693-.00002 2.0105.0442.5621.04592 1.0788.14448 1.5641.39178.7527.38349 1.3646.99541 1.7481 1.74806.2473.48534.3459 1.00204.3918 1.56414.0442.54119.0442 1.20554.0442 2.0105v8.48262c0 .805 0 1.4693-.0442 2.0105-.0459.5621-.1445 1.0788-.3918 1.5642-.3835.7526-.9954 1.3645-1.7481 1.748-.4853.2473-1.002.3459-1.5641.3918z"/></g></svg>

<svg width="24" height="24" viewBox="0 0 24 24" fill="none" xmlns="http://www.w3.org/2000/svg">
<path d="M5.74816 2.0442C5.91286 2.03074 5.99521 2.02401 6.09225 2.03504C6.36561 2.06612 6.6496 2.2372 6.80485 2.46433C6.85997 2.54496 6.89875 2.63545 6.97632 2.81643L10.7243 11.5617L3.18624 15.7206C2.7958 15.9361 2.60058 16.0438 2.44086 16.0248C2.3015 16.0082 2.17551 15.9338 2.09367 15.8198C1.99989 15.6892 1.99987 15.4662 1.99984 15.0203C1.99966 12.5998 1.99999 10.1792 1.99999 7.75869C1.99998 6.95373 1.99997 6.28936 2.04418 5.74818C2.09011 5.18608 2.18867 4.66938 2.43596 4.18404C2.81946 3.43139 3.43138 2.81947 4.18403 2.43598C4.66936 2.18868 5.18607 2.09012 5.74816 2.0442Z" fill="#801ED7"/>
<path d="M3.04242 18.0842C2.7066 18.2695 2.5387 18.3621 2.4069 18.5462C2.31322 18.6771 2.22483 18.94 2.22041 19.1008C2.21418 19.3272 2.26472 19.441 2.36579 19.6686C2.38774 19.7181 2.4111 19.7672 2.43596 19.816C2.81946 20.5686 3.43138 21.1805 4.18403 21.564C4.66936 21.8113 5.18607 21.9099 5.74816 21.9558C6.28935 22 6.9537 22 7.75866 22H13.9846C14.3897 22 14.5922 22 14.7189 21.9147C14.8296 21.8402 14.9059 21.7245 14.9308 21.5934C14.9593 21.4434 14.8795 21.2572 14.7199 20.8849L11.516 13.4091L3.04242 18.0842Z" fill="#801ED7"/>
<path d="M18.2518 21.9558C18.0873 21.9692 18.0051 21.976 17.9082 21.965C17.6346 21.9339 17.3505 21.7628 17.1952 21.5355C17.1402 21.4549 17.1014 21.3645 17.024 21.1838L9.28027 3.11514C9.1207 2.7428 9.04091 2.55663 9.06941 2.40664C9.09433 2.27554 9.17063 2.15983 9.28132 2.08528C9.40795 2 9.61049 2 10.0156 2H16.2413C17.0462 1.99999 17.7106 1.99998 18.2518 2.0442C18.8139 2.09012 19.3306 2.18868 19.8159 2.43598C20.5686 2.81947 21.1805 3.43139 21.564 4.18404C21.8113 4.66938 21.9099 5.18608 21.9558 5.74818C22 6.28937 22 6.95372 22 7.75868V16.2413C22 17.0463 22 17.7106 21.9558 18.2518C21.9099 18.8139 21.8113 19.3306 21.564 19.816C21.1805 20.5686 20.5686 21.1805 19.8159 21.564C19.3306 21.8113 18.8139 21.9099 18.2518 21.9558Z" fill="#801ED7"/>
</svg>
